X: 121
T: No_206_The_White_Sun-Lady_-_part_2..krn
N: Derived from No_206_The_White_Sun-Lady_-_part_2..krn
%%abc-version 2.0
%%abcx-abcm2ps-target-version 5.9.1 (29 Sep 2008)
%%abc-creator hum2abc beta
%%abcx-conversion-date 2019/03/15 08:38:45
%%humdrum-veritas 1596167699
%%humdrum-veritas-data 338120876
%%linebreak <none>
%%barnumbers 0
L: 1/8
M: 2/4
K: Ab clef=treble
[K:clef=treble][M:2/4]F3/F/F2 | 
FF FF | 
B2=A z | 
E3/E/E2 | 
EE EE | 
A2EE ||  
[M:3/4]E3/E/ Ez3 ]|:  
[M:2/4]F3/F/F2 | 
FF FF | 
B2=A z | 
E3/E/E2 | 
EE EE ||  
[M:3/4]A2EEz2 | 
EEz4 :|]  
[M:2/4]EEz2 | 
z3E ||  
[M:3/4]EEz3E ||  
[M:2/4]B7/A/ | 
B7/A/ | 
B2A3/F/ | 
A4- ||  
[M:3/4]A3/A/F7/E/ | 
E4E3/c/ ||  
[M:2/4]B7/A/ | 
B4- | 
B3/B/ AF | 
A4- | 
A2F2 ||  
[M:3/4]E4z3/ c/ ||  
[M:2/4]B7/A/ | 
B7/A/ | 
B2A3/F/ | 
A4- | 
A3/A/F2 | 
E4 |]  



